tools/download-figma-icons/icons/outlined-large/slider.svg

<svg width="64" height="64" viewBox="0 0 64 64" fill="none" xmlns="http://www.w3.org/2000/svg">
<path fill-rule="evenodd" clip-rule="evenodd" d="M36.9931 7.35554C36.9204 6.59489 36.2797 6 35.5 6H29.5L29.3555 6.00687C28.5949 6.07955 28 6.7203 28 7.5V41H25.5C24.6716 41 24 41.6716 24 42.5V48.5C24 49.3284 24.6716 50 25.5 50H28V56.5L28.0069 56.6445C28.0796 57.4051 28.7203 58 29.5 58H35.5L35.6445 57.9931C36.4051 57.9204 37 57.2797 37 56.5V50H39.5C40.3284 50 41 49.3284 41 48.5V42.5C41 41.6716 40.3284 41 39.5 41H37V7.5L36.9931 7.35554ZM34 41H31V9H34V41ZM31 55V50H34V55H31ZM53.5 6C54.2797 6 54.9204 6.59489 54.9931 7.35554L55 7.5V27.5H57.5C58.3284 27.5 59 28.1716 59 29V35C59 35.8284 58.3284 36.5 57.5 36.5H55V56.5C55 57.2797 54.4051 57.9204 53.6445 57.9931L53.5 58H47.5C46.7203 58 46.0796 57.4051 46.0069 56.6445L46 56.5V36.5H43.5C42.6716 36.5 42 35.8284 42 35V29C42 28.1716 42.6716 27.5 43.5 27.5H46V7.5C46 6.7203 46.5949 6.07955 47.3555 6.00687L47.5 6H53.5ZM49 27.5H52V9H49V27.5ZM49 36.5V55H52V36.5H49ZM10 23H7.5C6.67157 23 6 22.3284 6 21.5V15.5C6 14.6716 6.67157 14 7.5 14H10V7.5C10 6.7203 10.5949 6.07955 11.3555 6.00687L11.5 6H17.5C18.2797 6 18.9204 6.59489 18.9931 7.35554L19 7.5V14H21.5C22.3284 14 23 14.6716 23 15.5V21.5C23 22.3284 22.3284 23 21.5 23H19V56.5C19 57.2797 18.4051 57.9204 17.6445 57.9931L17.5 58H11.5C10.7203 58 10.0796 57.4051 10.0069 56.6445L10 56.5V23ZM13 23V55H16V23H13ZM16 14V9H13V14H16ZM56 33.5H45V30.5H56V33.5ZM27 47H38V44H27V47ZM20 20H9V17H20V20Z" fill="black"/>
</svg>

<svg xmlns="http://www.w3.org/2000/svg" width="64" height="64" fill="none" viewBox="0 0 64 64"><path fill="currentColor" fill-rule="evenodd" d="M36.993 7.356A1.5 1.5 0 0 0 35.5 6h-6l-.145.007A1.5 1.5 0 0 0 28 7.5V41h-2.5a1.5 1.5 0 0 0-1.5 1.5v6a1.5 1.5 0 0 0 1.5 1.5H28v6.5l.007.145A1.5 1.5 0 0 0 29.5 58h6l.145-.007A1.5 1.5 0 0 0 37 56.5V50h2.5a1.5 1.5 0 0 0 1.5-1.5v-6a1.5 1.5 0 0 0-1.5-1.5H37V7.5zM34 41h-3V9h3zm-3 14v-5h3v5zM53.5 6a1.5 1.5 0 0 1 1.493 1.356L55 7.5v20h2.5A1.5 1.5 0 0 1 59 29v6a1.5 1.5 0 0 1-1.5 1.5H55v20a1.5 1.5 0 0 1-1.355 1.493L53.5 58h-6a1.5 1.5 0 0 1-1.493-1.355L46 56.5v-20h-2.5A1.5 1.5 0 0 1 42 35v-6a1.5 1.5 0 0 1 1.5-1.5H46v-20a1.5 1.5 0 0 1 1.355-1.493L47.5 6zM49 27.5h3V9h-3zm0 9V55h3V36.5zM10 23H7.5A1.5 1.5 0 0 1 6 21.5v-6A1.5 1.5 0 0 1 7.5 14H10V7.5a1.5 1.5 0 0 1 1.355-1.493L11.5 6h6a1.5 1.5 0 0 1 1.493 1.356L19 7.5V14h2.5a1.5 1.5 0 0 1 1.5 1.5v6a1.5 1.5 0 0 1-1.5 1.5H19v33.5a1.5 1.5 0 0 1-1.355 1.493L17.5 58h-6a1.5 1.5 0 0 1-1.493-1.355L10 56.5zm3 0v32h3V23zm3-9V9h-3v5zm40 19.5H45v-3h11zM27 47h11v-3H27zm-7-27H9v-3h11z" clip-rule="evenodd"/></svg>
